wp-content/plugins/google-analytics-for-wordpress/lite/assets/vue/img/icon-smashballoon.svg

<svg width="20" height="27" viewBox="0 0 20 27" fill="none" xmlns="http://www.w3.org/2000/svg">
	<g clip-path="url(#clip0)">
		<path fill-rule="evenodd" clip-rule="evenodd"
			  d="M9.21929 7.57103C7.42115 6.763 5.5482 5.55629 3.79986 4.99458C4.42104 6.47603 4.94533 8.05435 5.48787 9.61446C4.40573 10.4276 3.14172 11.0589 1.93412 11.7467C2.96176 12.7625 4.41714 13.3505 5.57671 14.2343C4.64789 15.3804 2.82301 16.5716 2.37834 17.6103C4.30119 17.3694 6.54182 16.9788 8.33085 16.8996C8.72397 18.8756 8.92671 21.042 9.48582 22.8521C10.3184 20.4567 11.0712 17.9815 12.0623 15.7446C13.5917 16.3772 15.4557 17.1486 16.9486 17.5215C15.9011 16.0518 14.9451 14.4906 14.0168 12.9016C15.3905 11.9061 16.7799 10.9264 18.1036 9.88094C16.2327 9.70856 14.2941 9.60366 12.3288 9.52561C12.0165 7.49835 12.0985 5.07678 11.618 3.21774C10.891 4.74145 10.0331 6.13417 9.21929 7.57103ZM10.1077 24.3624C9.86062 25.4199 10.6747 25.8537 10.5519 26.4946C9.74812 26.2176 9.14344 26.0754 8.06432 26.2281C8.09808 25.403 8.84015 25.2863 8.68623 24.2736C-2.81332 22.9662 -2.83642 2.18672 8.59738 0.907827C22.8936 -0.69127 23.3422 23.995 10.1077 24.3624"
			  fill="#E34F0E"/>
		<path fill-rule="evenodd" clip-rule="evenodd"
			  d="M11.618 3.21777C12.0985 5.07681 12.0164 7.49839 12.3288 9.52559C14.2941 9.60369 16.2326 9.70854 18.1036 9.88097C16.7799 10.9264 15.3905 11.9062 14.0168 12.9016C14.9451 14.4906 15.9011 16.0518 16.9486 17.5215C15.4556 17.1486 13.5917 16.3772 12.0622 15.7446C11.0712 17.9815 10.3184 20.4567 9.48578 22.8521C8.92667 21.042 8.72393 18.8756 8.33081 16.8996C6.54178 16.9788 4.30115 17.3694 2.37831 17.6103C2.82297 16.5716 4.64784 15.3805 5.57667 14.2343C4.41708 13.3505 2.96172 12.7625 1.93408 11.7467C3.14169 11.0589 4.40567 10.4277 5.48782 9.61444C4.94528 8.05439 4.42102 6.47606 3.79982 4.99462C5.54814 5.55632 7.42111 6.76304 9.21925 7.57106C10.0331 6.1342 10.891 4.74148 11.618 3.21777Z"
			  fill="white"/>
	</g>
	<defs>
		<clipPath id="clip0">
			<rect width="19.6532" height="25.6667" fill="white" transform="translate(0.041748 0.833328)"/>
		</clipPath>
	</defs>
</svg>

<svg width="20" height="27" fill="none" xmlns="http://www.w3.org/2000/svg"><g clip-path="url(#clip0)" fill-rule="evenodd" clip-rule="evenodd"><path d="M9.22 7.571c-1.8-.808-3.673-2.015-5.42-2.576.621 1.481 1.145 3.06 1.688 4.62-1.082.813-2.346 1.444-3.554 2.132 1.028 1.015 2.483 1.604 3.643 2.487-.93 1.146-2.754 2.338-3.199 3.376 1.923-.24 4.164-.631 5.953-.71.393 1.976.596 4.142 1.155 5.952.832-2.395 1.585-4.87 2.576-7.107 1.53.632 3.394 1.404 4.887 1.777-1.048-1.47-2.004-3.031-2.932-4.62 1.373-.996 2.763-1.976 4.087-3.021-1.871-.172-3.81-.277-5.775-.355-.313-2.028-.23-4.45-.711-6.308-.727 1.523-1.585 2.916-2.399 4.353zm.888 16.791c-.247 1.058.567 1.492.444 2.133-.804-.277-1.409-.42-2.488-.267.034-.825.776-.942.622-1.954C-2.814 22.966-2.836 2.187 8.597.908c14.297-1.6 14.745 23.087 1.51 23.454" fill="#E34F0E"/><path d="M11.618 3.218c.48 1.859.398 4.28.71 6.308 1.966.078 3.905.183 5.776.355-1.324 1.045-2.713 2.025-4.087 3.02.928 1.59 1.884 3.15 2.932 4.62-1.493-.372-3.357-1.144-4.887-1.776-.99 2.237-1.744 4.712-2.576 7.107-.56-1.81-.762-3.976-1.155-5.952-1.79.079-4.03.47-5.953.71.445-1.038 2.27-2.23 3.199-3.376-1.16-.883-2.615-1.472-3.643-2.487 1.208-.688 2.472-1.32 3.554-2.133-.543-1.56-1.067-3.138-1.688-4.62 1.748.562 3.621 1.769 5.42 2.577.813-1.437 1.671-2.83 2.398-4.353z" fill="#fff"/></g><defs><clipPath id="clip0"><path fill="#fff" transform="translate(.042 .833)" d="M0 0h19.653v25.667H0z"/></clipPath></defs></svg>
